X: 41549
T: Unfinished, The
R: reel
M: 4/4
K: Dmajor
de|:f2 af efdB|BABc d3 A|FAdf eBag|fegf e2 de|
f2 af efdB|BABc d3 e|fdec dBAg|(3fga eg fd de:|
|:fddc A3 G|(3FGA EG FGAe|fddc A3 G|(3FGA dc d3 e|
fddc A3 G|(3FGA EG FGAe|fddc A3 g|(3fga eg fd de:|

